X:1
T:Title
%%score { 1 | 2 }
L:1/8
Q:1/4=100
M:4/4
K:A
V:1 treble nm="Grand Piano"
V:2 bass 
V:1
 [CE][CE][CE][CE] [CE] [CE]3 | FFFF F4 | [CE][CE][CE][CE] [CE] [CE]3 | GGAA B4 | %4
w: R.~E.~Hudson * * * * *||||
 [CE][CE][CE][CE] [CE] [CE]3 | FFFF [DFA]4 | [CE][CE][A,CE][A,CE] [A,CE] [A,CE]3 | %7
w: |||
[M:17/16] [B,EG][CEA][DEB]3/2[B,EG][CEA]/-[CEA]/-[CEA]/-[CEA]/-[CEA]-<[CEA] | %8
w: |
[M:4/4] [CE]2 [CE]2 [CE][CE][EA][EB] | [Ec]4 [A,CA]2 [A,EA]2 | %10
w: ||
 [A,DF]2 [A,DF][A,DF] [A,FA]2 [A,EG][A,DF] | [DF]2 [CE]2 [CE]4 | [CE]2 [CE][CE] [CE][CE][EA]B | %13
w: |||
 c6 z2 | F2 FF EEFG | [CA]6 z2 | [DF]4 [CE]4 |] %17
w: ||||
V:2
 [A,,A,][A,,A,][A,,A,][A,,A,] [A,,A,] [A,,A,]3 | [D,A,D][D,A,D][D,A,D][D,A,D] [D,A,D]4 | %2
 [A,,A,][A,,A,][A,,A,][A,,A,] [A,,A,] [A,,A,]3 | [E,B,E][E,B,E][E,CE][E,CE] [E,DE]4 | %4
 [A,,A,][A,,A,][A,,A,][A,,A,] [A,,A,] [A,,A,]3 | [D,A,D][D,A,D][D,A,D][D,A,D] D,4 | %6
 A,,A,,A,,A,, A,, A,,3 |[M:17/16] E,E,E,3/2E,A,,/-A,,/-A,,/-A,,/-A,,-<A,, | %8
[M:4/4] [A,,A,]2 [A,,A,]2 [A,,A,][A,,A,][A,,A,][E,G,] | A,4 A,,2 C,2 | D,2 D,D, D,2 D,D, | %11
 [A,,A,]2 [A,,A,]2 [A,,A,]4 | [A,,A,]2 [A,,A,][A,,A,] [A,,A,][A,,A,][C,A,][E,G,E] | [A,E]6 z2 | %14
 [D,A,D]2 [D,A,D][D,A,D] [E,A,C][E,A,C][E,G,D][E,B,D] | [A,,A,]6 z2 | [D,A,]4 [A,,A,]4 |] %17

